X: 15051
T: Bonny Kate of Edinburgh
%R: air, strathspey
B: James Oswald "The Caledonian Pocket Companion" v.1 b.5 p.5 #1
S: https://ia800501.us.archive.org/18/items/caledonianpocket01rugg/caledonianpocket01rugg_bw.pdf
Z: 2020 John Chambers <jc:trillian.mit.edu>
M: C
L: 1/16
K: C
%%slurgraces 1
%%graceslurs 1
"_Slow"z2c2 |\
(GE3)(G3A) G4 (cde2) | (ge3)Td3c A6 c2 |\
(G2E2)(G2e2) (f2e2)(d2c2) | {cd}e4 (g3a) g6 a2 |\
(g2e2)(d2c2) f4 (fga2) | TA4 (fedc) G6 a2 |\
(g2e2)(Td3c) A3BA2G2 |
{G}A4 (c3d) c4 :: (e2f2) |\
(g2e2)(g2a2) g4 (f2e2) | a2g2 (a2bc') g6 e2 |\
d2c2(d2e2) (d2e2g2)G2 | A4 (G2A2) G6 c2 |\
(G2E2)(G2A2) c4 (cde2) | (d2c2)(d2e2) f4 fga2 |
{a}g6 e2 (ge3)(Td3c) | A4 (Tc3d) c4 :: z2c2 |\
(GE3)(GE3) (G2AB) (cdef) | g2ag (fedc) A6 c2 |\
(GED)E G4 A2a2 g(edc) | {cd}e4 g3a g6 a2 |
(g2fe) (fedc) {fg}a6 g2 | (agfe) (fedc) TG6 F2 |\
(E2c2) (A2a2) (g2fe) (fe)(dc) | {G}A4 c3d c4 :: e2f2 |\
(ge3)(ge3) g6 fe | (af3) (c'a3) {a}g6 fe |
{e}d6 e2 (f2g2a2)c2 | B4 TA3G G6 A2 |\
(GEDE) G4 (AGAc) (cde2) | g(edc) d2e2 f4 (fga2) |\
g2ab c'(agf) (gedc) g2G2 | {G}A4 c3d c4 :|


